svg/u1fab1.svg

<svg viewBox="0 0 128 128" xmlns="http://www.w3.org/2000/svg">
  <path d="M63.81,39.12c-2.3,8.12,2.14,14.81,15.86,20.37c6.65,2.69,14.78,5.74,18.43,12.26 c2.95,5.29-0.97,15.33-14.48,13.22C69.7,82.8,56.75,66.16,37.75,58.56c-17.29-6.91-32.05-3.3-31.93,8.52 c0.09,8.94,7.28,11.39,11.06,10.99c2.54-0.27,5.03-1.57,9.85-2.19c6.01-0.77,22.58,10.98,33.51,17.95 c13.23,8.45,38.92,12.36,48.85-2.24c9.01-13.25,5.7-26.2-5.63-34.79c-10.27-7.78-25.11-9.8-23.79-14.3 c1.62-5.55,17.51-0.49,28.86-1.05c11.54-0.56,13.79-4.78,13.8-6.76c0.01-2.89-5.84,0.14-13.87-0.92 c-14.11-1.86-21.47-6.26-33.39-4.59C70.08,29.91,65.42,33.43,63.81,39.12z" fill="#EC7FAC"/>
  <g>
    <path d="M101.62,36.11c-0.11,1.68-0.05,3.53,0.08,5.17c2.35,0.19,4.67,0.29,6.83,0.18 c0.9-0.04,1.72-0.12,2.51-0.2c-0.13-1.14-0.25-2.46-0.26-3.41c-0.01-1.34,0.06-2.76,0.13-3.86c-0.79-0.03-1.61-0.09-2.45-0.2 c-2.34-0.31-4.48-0.69-6.5-1.1C101.83,33.66,101.71,34.81,101.62,36.11z" fill="#FEA8A7"/>
    <path d="M71.78,33.35c7,0.84,9.1,4.69,9.26,7.47c1.51-0.87,4.39-1.01,6.94-0.88 c-0.32-1.47-0.63-3.24-0.75-4.95c-0.09-1.25-0.07-3.8-0.04-5.55c-3.79-0.63-7.63-0.86-12.12-0.23c-2.96,0.42-6.41,1.8-8.93,5.22 C67.46,33.69,69.74,33.1,71.78,33.35z" fill="#FEA8A7"/>
    <path d="M106.04,65.82c3.15,0,5.12,0.86,6.33,1.77c-1.8-4.03-4.83-7.69-8.91-10.78 c-1.07-0.81-2.2-1.56-3.34-2.26c-1.38,0.3-3.56,1.07-5.29,3.1c-1.9,2.22-2.23,6.11-2.27,8.16c2.19,1.57,4.09,3.43,5.42,5.74 C98.76,69.78,101.05,65.82,106.04,65.82z" fill="#FEA8A7"/>
    <path d="M75.75,57.74c-0.31-1.88-0.47-5.23,1.38-8.48c1.24-2.19,3.35-3.05,4.73-3.39 c-1.68-1.04-2.56-2.1-2.2-3.35c0.06-0.2-0.09,0.17,0,0c-0.82-2.31-2.54-5.63-8.19-6.42c-3.48-0.49-6.19,1.15-7.73,3.25 C61.82,46.53,65.24,52.59,75.75,57.74z" fill="#FEA8A7"/>
    <path d="M92.1,56.63c1.77-2.28,3.77-3.25,5.16-3.67c-4.64-2.43-9.38-4.14-12.79-5.72 c-1.41,0.36-3.61,1.29-4.95,3.7c-1.68,3.02-1.29,6.45-0.95,8.09c0.36,0.15,0.71,0.31,1.09,0.47c3.31,1.34,6.98,2.77,10.29,4.67 C90.03,62.33,90.4,58.82,92.1,56.63z" fill="#FEA8A7"/>
    <path d="M99.05,36.73c0.07-1.48,0.29-3.13,0.51-4.54c-3.59-0.8-6.8-1.64-9.94-2.29 c-0.06,1.55-0.07,3.66,0.13,5.58c0.16,1.51,0.59,3.25,1,4.66c2.61,0.24,5.46,0.61,8.34,0.9C99.01,39.72,98.97,38.23,99.05,36.73z" fill="#FEA8A7"/>
    <path d="M113.25,34.01c-0.01,1.21-0.01,2.74,0.02,3.8c0.02,0.9,0.12,2.07,0.22,3.1 c7.25-1.34,8.84-4.55,8.84-6.2C122.33,32.44,118.7,33.82,113.25,34.01z" fill="#FEA8A7"/>
    <path d="M106.29,68.4c-3.85,0.39-6.28,3.86-7.36,5.93c0.27,1.97-0.16,4.16-1.39,6.06 c1.43,0.19,4.49,0.84,6.81,3.07c3.14,3.02,3.69,7.03,3.68,9.54c0.37-0.45,0.72-0.92,1.06-1.41c4.76-7,6.08-13.92,4.59-20.16 C112.29,69.96,109.79,68.05,106.29,68.4z" fill="#FEA8A7"/>
    <path d="M102,86.1c-1.68-2.04-4.95-3-6.58-3.37c-1.79,1.41-4.27,2.38-7.52,2.51 c0.61,1.15,1.47,3.47,1.47,7.43c0,3.93-1.24,7.05-2.08,8.7c6.48-0.06,12.67-1.56,17.36-5.12C104.74,94,104.55,89.2,102,86.1z" fill="#FEA8A7"/>
    <path d="M40.15,69.72c1.03-2.81,1.13-7.37,1.11-9.62c-1.15-0.54-2.32-1.06-3.52-1.54 C20.46,51.64,4.69,55.48,4.82,67.3c0.09,8.94,8.28,11.17,12.06,10.77c2.54-0.27,5.03-1.57,9.85-2.19c1.74-0.22,4.38,0.61,7.5,2.07 C35.77,76.68,38.63,73.87,40.15,69.72z" fill="#FEA8A7"/>
    <path d="M85.81,92.81c-0.19-3.56-0.89-6.36-1.38-7.73c-0.27-0.03-0.55-0.06-0.83-0.11 c-12.04-1.88-23.36-14.59-38.5-22.9c0.21,1.88,0.04,5.4-2.28,11.03c-1.08,2.61-3.68,5.43-4.95,6.71 c7.14,3.89,15.77,9.82,22.36,14.03c5.99,3.82,14.53,6.71,23,7.38C84.2,99.58,85.99,96.03,85.81,92.81z" fill="#FEA8A7"/>
  </g>
  <ellipse cx="18.74" cy="65.7" rx="2.39" ry="2.16" transform="matrix(0.1097 -0.994 0.994 0.1097 -48.616 77.1276)"/>
  <ellipse cx="9.88" cy="65.7" rx="2.16" ry="2.39" transform="matrix(0.9951 -0.0986 0.0986 0.9951 -6.428 1.2934)"/>
  <path d="M14.47,70.91c1.74,0,2.71-1.35,3.63-0.31c1.14,1.3-1.45,2.83-3.66,2.83c-2.63,0-4.62-1.89-3.43-2.96 C11.95,69.63,12.5,70.91,14.47,70.91z"/>
  <path d="M50.95,76.01c-3.01,4.65-6.55,6.06-6.57,8.17c-0.02,1.69,2.69,3.52,10.75,8.44 c8.58,5.24,11.04,5.49,12.59,4.64c1.05-0.57,3.48-2.09,5.8-5.86c2.58-4.18,3.52-8.71,0.7-10.75c-1.76-1.27-3.25-2.31-7.93-5.54 c-6.19-4.28-9.81-7.49-11.31-7.46C53.24,67.69,53.73,71.72,50.95,76.01z" fill="#EC7FAC"/>
</svg>

<svg viewBox="0 0 128 128" xmlns="http://www.w3.org/2000/svg">
  <defs/>
  <path d="M63.81,39.12 C61.51,47.24 65.95,53.93 79.67,59.49 C86.32,62.18 94.45,65.23 98.1,71.75 C101.05,77.04 97.13,87.08 83.62,84.97 C69.7,82.8 56.75,66.16 37.75,58.56 C20.46,51.65 5.7,55.26 5.82,67.08 C5.91,76.02 13.1,78.47 16.88,78.07 C19.42,77.8 21.91,76.5 26.73,75.88 C32.74,75.11 49.31,86.86 60.24,93.83 C73.47,102.28 99.16,106.19 109.09,91.59 C118.1,78.34 114.79,65.39 103.46,56.8 C93.19,49.02 78.35,47 79.67,42.5 C81.29,36.95 97.18,42.01 108.53,41.45 C120.07,40.89 122.32,36.67 122.33,34.69 C122.34,31.8 116.49,34.83 108.46,33.77 C94.35,31.91 86.99,27.51 75.07,29.18 C70.08,29.91 65.42,33.43 63.81,39.12 Z" fill="#EC7FAC"/>
  <path d="M101.62,36.11 C101.51,37.79 101.57,39.64 101.7,41.28 C104.05,41.47 106.37,41.57 108.53,41.46 C109.43,41.42 110.25,41.34 111.04,41.26 C110.91,40.12 110.79,38.8 110.78,37.85 C110.77,36.51 110.84,35.09 110.91,33.99 C110.12,33.96 109.3,33.9 108.46,33.79 C106.12,33.48 103.98,33.1 101.96,32.69 C101.83,33.66 101.71,34.81 101.62,36.11 Z" fill="#FEA8A7"/>
  <path d="M71.78,33.35 C78.78,34.19 80.88,38.04 81.04,40.82 C82.55,39.95 85.43,39.81 87.98,39.94 C87.66,38.47 87.35,36.7 87.23,34.99 C87.14,33.74 87.16,31.19 87.19,29.44 C83.4,28.81 79.56,28.58 75.07,29.21 C72.11,29.63 68.66,31.01 66.14,34.43 C67.46,33.69 69.74,33.1 71.78,33.35 Z" fill="#FEA8A7"/>
  <path d="M106.04,65.82 C109.19,65.82 111.16,66.68 112.37,67.59 C110.57,63.56 107.54,59.9 103.46,56.81 C102.39,56 101.26,55.25 100.12,54.55 C98.74,54.85 96.56,55.62 94.83,57.65 C92.93,59.87 92.6,63.76 92.56,65.81 C94.75,67.38 96.65,69.24 97.98,71.55 C98.76,69.78 101.05,65.82 106.04,65.82 Z" fill="#FEA8A7"/>
  <path d="M75.75,57.74 C75.44,55.86 75.28,52.51 77.13,49.26 C78.37,47.07 80.48,46.21 81.86,45.87 C80.18,44.83 79.3,43.77 79.66,42.52 C79.72,42.32 79.57,42.69 79.66,42.52 C78.84,40.21 77.12,36.89 71.47,36.1 C67.99,35.61 65.28,37.25 63.74,39.35 C61.82,46.53 65.24,52.59 75.75,57.74 Z" fill="#FEA8A7"/>
  <path d="M92.1,56.63 C93.87,54.35 95.87,53.38 97.26,52.96 C92.62,50.53 87.88,48.82 84.47,47.24 C83.06,47.6 80.86,48.53 79.52,50.94 C77.84,53.96 78.23,57.39 78.57,59.03 C78.93,59.18 79.28,59.34 79.66,59.5 C82.97,60.84 86.64,62.27 89.95,64.17 C90.03,62.33 90.4,58.82 92.1,56.63 Z" fill="#FEA8A7"/>
  <path d="M99.05,36.73 C99.12,35.25 99.34,33.6 99.56,32.19 C95.97,31.39 92.76,30.55 89.62,29.9 C89.56,31.45 89.55,33.56 89.75,35.48 C89.91,36.99 90.34,38.73 90.75,40.14 C93.36,40.38 96.21,40.75 99.09,41.04 C99.01,39.72 98.97,38.23 99.05,36.73 Z" fill="#FEA8A7"/>
  <path d="M113.25,34.01 C113.24,35.22 113.24,36.75 113.27,37.81 C113.29,38.71 113.39,39.88 113.49,40.91 C120.74,39.57 122.33,36.36 122.33,34.71 C122.33,32.44 118.7,33.82 113.25,34.01 Z" fill="#FEA8A7"/>
  <path d="M106.29,68.4 C102.44,68.79 100.01,72.26 98.93,74.33 C99.2,76.3 98.77,78.49 97.54,80.39 C98.97,80.58 102.03,81.23 104.35,83.46 C107.49,86.48 108.04,90.49 108.03,93 C108.4,92.55 108.75,92.08 109.09,91.59 C113.85,84.59 115.17,77.67 113.68,71.43 C112.29,69.96 109.79,68.05 106.29,68.4 Z" fill="#FEA8A7"/>
  <path d="M102,86.1 C100.32,84.06 97.05,83.1 95.42,82.73 C93.63,84.14 91.15,85.11 87.9,85.24 C88.51,86.39 89.37,88.71 89.37,92.67 C89.37,96.6 88.13,99.72 87.29,101.37 C93.77,101.31 99.96,99.81 104.65,96.25 C104.74,94 104.55,89.2 102,86.1 Z" fill="#FEA8A7"/>
  <path d="M40.15,69.72 C41.18,66.91 41.28,62.35 41.26,60.1 C40.11,59.56 38.94,59.04 37.74,58.56 C20.46,51.64 4.69,55.48 4.82,67.3 C4.91,76.24 13.1,78.47 16.88,78.07 C19.42,77.8 21.91,76.5 26.73,75.88 C28.47,75.66 31.11,76.49 34.23,77.95 C35.77,76.68 38.63,73.87 40.15,69.72 Z" fill="#FEA8A7"/>
  <path d="M85.81,92.81 C85.62,89.25 84.92,86.45 84.43,85.08 C84.16,85.05 83.88,85.02 83.6,84.97 C71.56,83.09 60.24,70.38 45.1,62.07 C45.31,63.95 45.14,67.47 42.82,73.1 C41.74,75.71 39.14,78.53 37.87,79.81 C45.01,83.7 53.64,89.63 60.23,93.84 C66.22,97.66 74.76,100.55 83.23,101.22 C84.2,99.58 85.99,96.03 85.81,92.81 Z" fill="#FEA8A7"/>
  <path d="M19.008,63.332 C20.194,63.463 21.037,64.632 20.893,65.944 C20.748,67.256 19.669,68.214 18.483,68.083 C17.298,67.952 16.454,66.782 16.599,65.47 C16.743,64.158 17.822,63.201 19.008,63.332 Z"/>
  <path d="M12.031,65.484 C12.161,66.798 11.304,67.958 10.117,68.076 C8.93,68.193 7.862,67.224 7.732,65.91 C7.602,64.597 8.459,63.437 9.646,63.319 C10.833,63.201 11.901,64.171 12.031,65.484 Z"/>
  <path d="M14.47,70.91 C16.21,70.91 17.18,69.56 18.1,70.6 C19.24,71.9 16.65,73.43 14.44,73.43 C11.81,73.43 9.82,71.54 11.01,70.47 C11.95,69.63 12.5,70.91 14.47,70.91 Z"/>
  <path d="M50.95,76.01 C47.94,80.66 44.4,82.07 44.38,84.18 C44.36,85.87 47.07,87.7 55.13,92.62 C63.71,97.86 66.17,98.11 67.72,97.26 C68.77,96.69 71.2,95.17 73.52,91.4 C76.1,87.22 77.04,82.69 74.22,80.65 C72.46,79.38 70.97,78.34 66.29,75.11 C60.1,70.83 56.48,67.62 54.98,67.65 C53.24,67.69 53.73,71.72 50.95,76.01 Z" fill="#EC7FAC"/>
</svg>
